_theme_options/iconsets/psx-light/y.svg

<svg enable-background="new 0 0 175.095 175.013" height="175.013" viewBox="0 0 175.095 175.013" width="175.095" xmlns="http://www.w3.org/2000/svg"><g clip-rule="evenodd" fill="#fff" fill-rule="evenodd"><path d="m87.464 175.01c-47.887.378-88.328-39.495-87.45-89.138.834-47.133 39.878-86.481 88.759-85.865 47.772.603 87.29 40.285 86.304 89.397-.952 47.368-40.131 86.009-87.613 85.606zm.054-6.277c43.677.243 80.588-36.073 81.257-79.926.686-44.917-36.429-82.214-80.655-82.494-44.683-.283-81.254 36.641-81.802 80.151-.569 45.309 37.187 82.518 81.2 82.269z"/><path d="m40.734 134.382c0-31.23 0-62.402 0-93.652h93.583v93.652c-31.179 0-62.348 0-93.583 0zm12.608-81.109v68.476h68.435c0-22.873 0-45.643 0-68.476-22.834 0-45.576 0-68.435 0z"/></g></svg>

<?xml version="1.0" encoding="utf-8"?>
<!-- Generator: Adobe Illustrator 16.0.0, SVG Export Plug-In . SVG Version: 6.00 Build 0)  -->
<!DOCTYPE svg PUBLIC "-//W3C//DTD SVG 1.1//EN" "http://www.w3.org/Graphics/SVG/1.1/DTD/svg11.dtd">
<svg version="1.1" id="Layer_1" xmlns="http://www.w3.org/2000/svg" xmlns:xlink="http://www.w3.org/1999/xlink" x="0px" y="0px"
	 width="175.095px" height="175.013px" viewBox="0 0 175.095 175.013" enable-background="new 0 0 175.095 175.013"
	 xml:space="preserve">
<path fill-rule="evenodd" clip-rule="evenodd" fill="#FFFFFF" d="M87.464,175.01c-47.887,0.378-88.328-39.495-87.45-89.138
	C0.848,38.739,39.892-0.609,88.773,0.007c47.772,0.603,87.29,40.285,86.304,89.397C174.125,136.772,134.946,175.413,87.464,175.01z
	 M87.518,168.733c43.677,0.243,80.588-36.073,81.257-79.926c0.686-44.917-36.429-82.214-80.655-82.494
	C43.437,6.03,6.866,42.954,6.318,86.464C5.749,131.773,43.505,168.982,87.518,168.733z"/>
<path fill-rule="evenodd" clip-rule="evenodd" fill="#FFFFFF" d="M40.734,134.382c0-31.23,0-62.402,0-93.652
	c31.197,0,62.335,0,93.583,0c0,31.185,0,62.385,0,93.652C103.138,134.382,71.969,134.382,40.734,134.382z M53.342,53.273
	c0,22.899,0,45.698,0,68.476c22.884,0,45.653,0,68.435,0c0-22.873,0-45.643,0-68.476C98.943,53.273,76.201,53.273,53.342,53.273z"/>
</svg>
